X: 2186
T: Polonäs ("Kärsti") efter John Johansson
B: [[Notböcker/John Johanssons noter]] [[http://www.sormlandsmusikarkiv.se/noter/johansson_john/john_johansson.html|samling 2]], nr 68 (sida 22)
B: Jämför [[http://www.smus.se/earkiv/fmk/browselarge.php?lang=sw&katalogid=Up+7&bildnr=00045|SMUS - katalog Up7 bild 45]]
B: Jämför [[http://www.smus.se/earkiv/fmk/browselarge.php?lang=sw&katalogid=MMD+50&bildnr=00001|SMUS - katalog MMD50 bild 1]] från [[Platser/Västergötland]]
B: Jämför [[http://www.smus.se/earkiv/fmk/browselarge.php?lang=sw&katalogid=Ma+18&bildnr=00022|SMUS katalog Ma18 bild 22]] nr 69 ur [[Notböcker/Lars Larssons notbok]]
B: Jämför [[http://www.smus.se/earkiv/fmk/browselarge.php?lang=sw&katalogid=MMD+65&bildnr=00065|SMUS - katalog MMD65 bild 65]] (längst upp) och [[http://www.smus.se/earkiv/fmk/browselarge.php?lang=sw&katalogid=MMD+65&bildnr=00076|bild 76]] nr 5
B: Jämför [[http://www.smus.se/earkiv/fmk/browselarge.php?lang=sw&katalogid=M+56e&bildnr=00023|SMUS - katalog M56e bild 23]] nr 48 ur [[Notböcker/FG Bergmans notbok]] (med andrastämma)
B: Jämför [[http://www.smus.se/earkiv/fmk/browselarge.php?lang=sw&katalogid=MMD+55&bildnr=00008|SMUS - katalog MMD55 bild 8]] nr 12
B: Jämför [[http://www.smus.se/earkiv/fmk/browselarge.php?lang=sw&katalogid=Ske+49&bildnr=00032|SMUS - katalog Ske49 bild 32]] efter [[Personer/John Enninger]]
B: Jämför [[http://fmk.musikverket.se/browselarge.php?lang=sw&katalogid=Ske+51&bildnr=00033|SMUS - katalog Ske51 bild 33]]
B: Jämför [[http://www.smus.se/earkiv/fmk/browselarge.php?lang=sw&katalogid=Hs+11&bildnr=00059|SMUS - katalog Hs11 bild 59]] nr 114
B: Jämför [[http://www.smus.se/earkiv/fmk/browselarge.php?lang=sw&katalogid=MMD+67&bildnr=00020|SMUS - katalog MMD67 bild 20]] nr 34
B: Jämför [[http://www.smus.se/earkiv/fmk/browselarge.php?lang=sw&katalogid=MA+6&bildnr=00024|SMUS - katalog MA6 bild 24]] efter [[Personer/Petter Dufva]]
B: Jämför [[http://www.smus.se/earkiv/fmk/browselarge.php?lang=sw&katalogid=Vs+4&bildnr=00020|SMUS - katalog Vs4 bild 20]] efter [[Personer/Jan Erik Hammarberg]]
B: Jämför [[http://www.smus.se/earkiv/fmk/browselarge.php?lang=sw&katalogid=M+22b&bildnr=00044|SMUS - katalog M22b bild 44]] nr 43
O: Södermanland
R: Polonäs
Z: Nils
N: Det här verkar vara en variant av visan som börjar "Kärsti du kom du så vele vi svänga" (eller "Kjersti du, kom du, så vela vi svänga")
N: Det finns ett [[http://www.youtube.com/watch?v=YWC310Mwx3A&list=UUBSb4ekV0NcvRT9kHCqVlWg&index=25&feature=plpp_video|YouTube-klipp]] med en variant.
N: Se även [[Musik/2421|+]], [[Musik/2183|+]] och [[Musik/1523|+]]
M: 3/4
L: 1/16
K: Gm
G2B2 d4 B2>g2 | (^fgag) f4 a4 | b2(ab) (c'2b2) a2b2 | g2(ab) a4 z4 ::
b2(ag) ^f4 g2>d2 | e2(dc) c4 d4 |1 G2A2 B2c2 d2>g2 | ^f2=ef g4 z4 :|2
G2A2 B2c2 d2>B2 | A2BA G4 z4 |]
(:musicend:)
(:music:)
